web/packages/design/src/ResourceIcon/assets/guideline-dark.svg

<svg width="72" height="72" viewBox="0 0 72 72" fill="none" xmlns="http://www.w3.org/2000/svg">
<path d="M45.8527 0.84825L45.2723 6.2235C44.1135 3.11175 40.6373 0 34.2608 0C30.4943 0 27.8865 0.84825 25.2787 2.2635C19.773 5.6565 16.875 11.88 16.875 19.5165C16.875 27.72 20.0632 33.66 25.2787 36.7718C27.8865 38.1848 30.7845 39.033 33.9705 39.033C40.0567 39.033 42.6645 36.2048 43.533 33.9413V39.6C43.533 43.56 40.347 46.6695 36 46.953C31.653 47.2365 28.467 45.54 27.8865 41.8612L19.1925 46.1047C21.222 52.0447 27.306 55.4377 36.2902 55.4377C47.3017 55.44 55.125 49.5 55.125 39.0375V0.846H45.8527V0.84825ZM41.2178 28.0012C39.8115 29.103 38.0767 29.7017 36.2902 29.7017C34.5038 29.7017 32.769 29.103 31.3628 28.0012C29.3355 26.3047 28.1767 23.76 28.1767 19.5188C28.1767 15.273 29.3355 12.7282 31.3628 11.0317C32.769 9.93002 34.5038 9.33134 36.2902 9.33134C38.0767 9.33134 39.8115 9.93002 41.2178 11.0317C43.2428 12.7282 44.4037 15.273 44.4037 19.5165C44.1135 23.76 42.9547 26.0235 41.2155 28.0012H41.2178ZM55.125 59.2042V72H16.875V64.6875H47.7517V59.2042H55.125Z" fill="white"/>
</svg>

<svg xmlns="http://www.w3.org/2000/svg" width="72" height="72" fill="none" viewBox="0 0 72 72"><path fill="#fff" d="m45.853.848-.58 5.376C44.112 3.111 40.636 0 34.26 0c-3.767 0-6.375.848-8.982 2.264-5.506 3.393-8.404 9.616-8.404 17.253 0 8.203 3.188 14.143 8.404 17.255 2.608 1.413 5.506 2.261 8.692 2.261 6.086 0 8.694-2.828 9.562-5.092V39.6c0 3.96-3.186 7.07-7.533 7.353s-7.533-1.413-8.113-5.092l-8.695 4.244c2.03 5.94 8.114 9.333 17.098 9.333 11.012.002 18.835-5.938 18.835-16.4V.846h-9.272zm-4.635 27.153a7.99 7.99 0 0 1-9.855 0c-2.027-1.696-3.186-4.241-3.186-8.482 0-4.246 1.159-6.79 3.186-8.487a7.99 7.99 0 0 1 9.855 0c2.025 1.696 3.186 4.241 3.186 8.485-.29 4.243-1.45 6.506-3.189 8.484zm13.907 31.203V72h-38.25v-7.312h30.877v-5.484z"/></svg>
